pico_icons/symbolic/devices/drive-harddisk-usb-symbolic.svg

<?xml version="1.0" encoding="UTF-8"?>
<svg height="16px" viewBox="0 0 16 16" width="16px" xmlns="http://www.w3.org/2000/svg">
    <path d="m 8.5 0 h -1 l -2 4 h 1.5 v 5 h -3 v -1.269531 c 0.617188 -0.359375 1 -1.015625 1 -1.730469 c 0 -1.105469 -0.894531 -2 -2 -2 s -2 0.894531 -2 2 c 0 0.714844 0.382812 1.375 1 1.730469 v 1.269531 c 0 2 2 2 2 2 h 3 v 1.269531 c -0.617188 0.359375 -1 1.015625 -1 1.730469 c 0 1.105469 0.894531 2 2 2 s 2 -0.894531 2 -2 c 0 -0.714844 -0.382812 -1.375 -1 -1.730469 v -1.269531 h 3 s 2 0 2 -2 v -1 s 1.125 -0.1875 1 -1 v -2 c 0.125 -1.125 -1 -1 -1 -1 h -2 c -1.0625 0 -1 1 -1 1 v 2 c 0 1 1 1 1 1 v 1 h -3 v -5 h 1.5 z m 0 0" fill="#2e3434"/>
</svg>

<svg xmlns="http://www.w3.org/2000/svg" width="16" height="16" version="1.1">
 <path style="fill:#fff1e8" d="M 8,0 5.5,4 H 7 V 9 H 4 V 7.7305 C 4.62,7.3705 5,6.71 5,6 5,4.9 4.1,4 3,4 1.9,4 1,4.9 1,6 1,6.71 1.38,7.3705 2,7.7305 V 9 C 2,11 4,11 4,11 H 7 V 12.27 C 6.38,12.63 6,13.29 6,14 6,15.1 6.9,16 8,16 9.1,16 10,15.1 10,14 10,13.29 9.62,12.63 9,12.27 V 11 H 12 C 12,11 14,11 14,9 V 8 C 14.554,8 15,7.554 15,7 V 5 C 15,4.446 14.554,4 14,4 H 12 C 11.446,4 11,4.446 11,5 V 7 C 11,7.554 11.446,8 12,8 V 9 H 9 V 4 H 10.5 Z"/>
</svg>
